X:1
T:Late For Whatever
C:John Wobus
S:John Wobus composed 12/1/2003
M:2/4
R:reel
K:G
|: G3 B3 d2 | e2e2 d4 | g3 d3 g2 | a2a2 g4 |
 b3 g3 d2 | e2e2 d2g2 | e3 d3 B2 | A8 :|
|: a3 d3 a2 | b2b2 a4 | g3 c3 c2 |  c2e2 d4||
| g3 c3 c2 | c2e2 d2d2 | e3 d3 B2 | A8 :||
W:Copyright 2003 John Wobus, PGTPPCATPL AORR
